X:64
T: EHKHON MINNE KLOW
N: K0946
O: Europa, Mitteleuropa, Deutschland, Barmen, Elberfeld
R: Kinder - Lied, Pflanzen
M: 2/4
L: 1/16
K: G
 | d4B2z2 | d2d2d2e2 | d4B2z2
d2ddd2d2 | e2e2d2
d2 | c2c2B2d2 | A4G2d2 | A2G2z4
d2d2d2e2 | d4B2
B2 | d2d2d2e2 | d4B2z2
d2d2d2d2 | e2e2d4
c2c2B2d2 | A2A2G4

